icons/Editor/text-direction-l.svg

<svg viewBox="0 0 24 24" xmlns="http://www.w3.org/2000/svg"><path d="M11 5V15H9V11C6.79086 11 5 9.20914 5 7C5 4.79086 6.79086 3 9 3H17V5H15V15H13V5H11ZM9 5C7.89543 5 7 5.89543 7 7C7 8.10457 7.89543 9 9 9V5ZM17 17V14.5L21 18L17 21.5V19H5V17H17Z"/></svg>

<svg xmlns="http://www.w3.org/2000/svg" viewBox="0 0 24 24">
    <g>
        <path fill="none" d="M0 0h24v24H0z"/>
        <path d="M11 5v10H9v-4a4 4 0 1 1 0-8h8v2h-2v10h-2V5h-2zM9 5a2 2 0 1 0 0 4V5zm8 12v-2.5l4 3.5-4 3.5V19H5v-2h12z"/>
    </g>
</svg>
